src/images/GeneFit/Watch5.svg

<svg fill="none" height="100" viewBox="0 0 100 100" width="100" xmlns="http://www.w3.org/2000/svg"><path d="m49.5.00000006c4.0669-.00034087 7.9798 1.57105994 10.9363 4.39197994 2.9566 2.82092 4.7327 6.67752 4.9642 10.77912l.0245.9157.0049 39.3606.392.3416c4.5663 4.1125 7.4406 9.8047 8.0556 15.9531l.0931 1.2474.0294 1.2572c.0007 4.0777-.996 8.0924-2.9015 11.6872-1.9056 3.5948-4.6609 6.6582-8.021 8.918s-7.2209 3.6459-11.2392 4.0351-8.0695-.2306-11.7934-1.8043c-3.724-1.5737-7.0053-4.0525-9.5523-7.216s-4.2808-6.9138-5.0471-10.9173c-.7663-4.0036-.5415-8.1364.6546-12.031 1.196-3.8946 3.3261-7.4304 6.2009-10.2929l.882-.8415.3871-.3366.0049-39.3606c-.0008-3.9534 1.4395-7.76862 4.0461-10.71755 2.6065-2.94893 6.1968-4.825045 10.0855-5.2702544l.8918-.0742461zm0 7.42466994c-2.1528.00018-4.2268.81835-5.81 2.29199-1.5831 1.47364-2.5597 3.49494-2.7356 5.66234l-.0294.7078v43.0334l-1.5141 1.1137c-2.8928 2.1256-5.0552 5.1117-6.1846 8.5404s-1.1691 7.1283-.1137 10.5809 3.1531 6.4855 5.9996 8.674c2.8464 2.1885 6.2991 3.4232 9.8746 3.5311 3.5756.108 7.0951-.9162 10.0658-2.9291 2.9708-2.0129 5.244-4.9138 6.5017-8.2966 1.2576-3.3828 1.4366-7.0782.512-10.5689-.9247-3.4907-2.9067-6.6019-5.6687-8.8982l-.8085-.6287-1.5043-1.1137-.0098-43.0383c0-2.2973-.9034-4.5006-2.5116-6.12505-1.6081-1.62446-3.7892-2.53708-6.0634-2.53708zm0 22.27403c.9747 0 1.9094.3911 2.5986 1.0873s1.0764 1.6404 1.0764 2.625v29.0305c2.7933.887 5.1799 2.7549 6.7277 5.2657 1.5478 2.5107 2.1545 5.4983 1.7104 8.4219-.4442 2.9235-1.9099 5.5898-4.1319 7.5161-2.2219 1.9263-5.0532 2.9854-7.9812 2.9854s-5.7593-1.0591-7.9812-2.9854c-2.222-1.9263-3.6877-4.5926-4.1319-7.5161-.4441-2.9236.1626-5.9112 1.7104-8.4219 1.5478-2.5108 3.9344-4.3787 6.7277-5.2657v-29.0305c0-.9846.3872-1.9288 1.0764-2.625s1.6239-1.0873 2.5986-1.0873z" fill="#ec8539"/></svg>

<svg width="100" height="100" viewBox="0 0 100 100" fill="none" xmlns="http://www.w3.org/2000/svg">
<path d="M49.5 5.54418e-08C53.5669 -0.000340806 57.4798 1.57106 60.4363 4.39198C63.3929 7.2129 65.169 11.0695 65.4005 15.1711L65.425 16.0868L65.4299 55.4474L65.8219 55.789C70.3882 59.9015 73.2625 65.5937 73.8775 71.7421L73.9706 72.9895L74 74.2467C74.0007 78.3244 73.004 82.3391 71.0985 85.9339C69.1929 89.5287 66.4376 92.5921 63.0775 94.8519C59.7174 97.1117 55.8566 98.4978 51.8383 98.887C47.82 99.2762 43.7688 98.6564 40.0449 97.0827C36.3209 95.509 33.0396 93.0302 30.4926 89.8667C27.9456 86.7032 26.2118 82.9529 25.4455 78.9494C24.6792 74.9458 24.904 70.813 26.1001 66.9184C27.2961 63.0238 29.4262 59.488 32.301 56.6255L33.183 55.784L33.5701 55.4474L33.575 16.0868C33.5742 12.1334 35.0145 8.31818 37.6211 5.36925C40.2276 2.42032 43.8179 0.544205 47.7066 0.0989956L48.5984 0.0247495L49.5 5.54418e-08ZM49.5 7.42467C47.3472 7.42485 45.2732 8.24302 43.69 9.71666C42.1069 11.1903 41.1303 13.2116 40.9544 15.379L40.925 16.0868V59.1202L39.4109 60.2339C36.5181 62.3595 34.3557 65.3456 33.2263 68.7743C32.0969 72.203 32.0572 75.9026 33.1126 79.3552C34.168 82.8078 36.2657 85.8407 39.1122 88.0292C41.9586 90.2177 45.4113 91.4524 48.9868 91.5603C52.5624 91.6683 56.0819 90.6441 59.0526 88.6312C62.0234 86.6183 64.2966 83.7174 65.5543 80.3346C66.8119 76.9518 66.9909 73.2564 66.0663 69.7657C65.1416 66.275 63.1596 63.1638 60.3976 60.8675L59.5891 60.2388L58.0848 59.1251L58.075 16.0868C58.075 13.7895 57.1716 11.5862 55.5634 9.96175C53.9553 8.33729 51.7742 7.42467 49.5 7.42467V7.42467ZM49.5 29.6987C50.4747 29.6987 51.4094 30.0898 52.0986 30.786C52.7878 31.4822 53.175 32.4264 53.175 33.411V62.4415C55.9683 63.3285 58.3549 65.1964 59.9027 67.7072C61.4505 70.2179 62.0572 73.2055 61.6131 76.1291C61.1689 79.0526 59.7032 81.7189 57.4812 83.6452C55.2593 85.5715 52.428 86.6306 49.5 86.6306C46.572 86.6306 43.7407 85.5715 41.5188 83.6452C39.2968 81.7189 37.8311 79.0526 37.3869 76.1291C36.9428 73.2055 37.5495 70.2179 39.0973 67.7072C40.6451 65.1964 43.0317 63.3285 45.825 62.4415V33.411C45.825 32.4264 46.2122 31.4822 46.9014 30.786C47.5906 30.0898 48.5253 29.6987 49.5 29.6987V29.6987Z" fill="#EC8539"/>
</svg>
